X: 21461
T: Kevin McHugh's
R: slide
M: 12/8
K: Dmajor
f2a f2a f3 fef|a2f ede f2d A2e|
f2a f2a f3 fef|1 a2f efe ded a2g:|2 a2f efe ded dcB||
ABA f2d ABA DFA|ABA Ddc BcB B2A|
BAB c2B ABA c2B|1 ABA GFE F3 FG^G:|2 ABA GFE DED a2g||

